!!!OTL: DER ABEND SCHLEIERT FLUR UND HAIN
!!!ARE: Europa, Mitteleuropa, Deutschland
!!!SCT: F0942
!!!YEM: Copyright 1995, estate of Helmut Schaffrath.
**kern
*ICvox
*Ivox
*M3/4
*k[f#c#g#]
*A:
{4e
=1
2cc#
4b
=2
2a
4e
=3
4.f#
8a
8g#
8b
=4
2a}
{4a
=5
4.b
8cc#
4a
=6
4.b
8cc#
4a
=7
4ee
4dd
4cc#
=8
2b}
{8b
8cc#
=9
2dd
4dd
=10
4cc#
4b
8cc#
8dd
=11
8ff#
8ee
4dd
4cc#
=12
2cc#}
{8.cc#
16b
=13
4b
4ff#
4ff#
=14
4ff#
4ee
4a
=15
4b
4dd
4g#
=16
2a}
==
!!!AGN: Liebes - Lied
!!!ONB: ESAC (Essen Associative Code) Database: FINK
!!!AMT: simple triple
!!!AIN: vox
!!!EED: Helmut Schaffrath
!!!EEV: 1.0
*-
